Adwaita++/emblems/16/emblem-downloads.svg

<svg fill="none" height="16" viewBox="0 0 16 16" width="16" xmlns="http://www.w3.org/2000/svg">
  <path d="m13.6 1h-11.2c-.7732 0-1.4.6268-1.4 1.4v11.2c0 .7732.6268 1.4 1.4 1.4h11.2c.7732 0 1.4-.6268 1.4-1.4v-11.2c0-.7732-.6268-1.4-1.4-1.4z" fill="#9a9996"/>
  <g fill="#f6f5f4">
    <path d="m6.85294 3v4.70588h-2.35294l3.52941 3.52942 3.52939-3.52942h-2.35292v-4.70588z"/>
    <path d="m11.5588 13v-1.1765h-7.05879v1.1765z"/>
  </g>
</svg>

<svg xmlns="http://www.w3.org/2000/svg" fill="none" width="16" height="16" viewBox="0 0 16 16">
 <path fill="url(#paint0_linear)" d="M13.6 1H2.4C1.6268 1 1 1.6268 1 2.4V13.6C1 14.3732 1.6268 15 2.4 15H13.6C14.3732 15 15 14.3732 15 13.6V2.4C15 1.6268 14.3732 1 13.6 1Z"/>
 <path fill="url(#paint1_linear)" d="M6.85294 3V7.70588H4.5L8.02941 11.2353L11.5588 7.70588H9.20588V3H6.85294Z"/>
 <path fill="url(#paint2_linear)" d="M11.5588 13V11.8235H4.50001V13H11.5588Z"/>
 <defs>
  <linearGradient id="paint0_linear" x1="1" x2="15" y1="8" y2="8" gradientUnits="userSpaceOnUse">
   <stop stop-color="#9A9996"/>
  </linearGradient>
  <linearGradient id="paint1_linear" x1="4.5" x2="11.559" y1="7.118" y2="7.118" gradientUnits="userSpaceOnUse">
   <stop stop-color="#F6F5F4"/>
  </linearGradient>
  <linearGradient id="paint2_linear" x1="8.029" x2="8.029" y1="11.823" y2="13" gradientUnits="userSpaceOnUse">
   <stop stop-color="#F6F5F4"/>
  </linearGradient>
 </defs>
</svg>
